src/assets/Icons/icon-check-in-person.svg

<svg width="12" height="13" viewBox="0 0 12 13" fill="none" xmlns="http://www.w3.org/2000/svg">
<path d="M6.31009 6.7767C7.95216 6.7767 9.28754 5.44132 9.28754 3.79925V3.30301C9.28754 1.66095 7.95216 0.325562 6.31009 0.325562C4.66803 0.325562 3.33264 1.66095 3.33264 3.30301V3.79925C3.33264 5.44132 4.66803 6.7767 6.31009 6.7767Z" fill="#FADB5E"/>
<path d="M9.94279 8.25644C7.60847 7.60983 5.01064 7.60983 2.67582 8.25644C1.60146 8.55418 0.850647 9.53823 0.850647 10.6503V12.2358H11.768V10.6503C11.768 9.53823 11.0172 8.55418 9.94279 8.25644Z" fill="#FADB5E"/>
</svg>

<svg xmlns="http://www.w3.org/2000/svg" viewBox="0 0 12 13"><path d="M6.31 6.777a2.98 2.98 0 0 0 2.978-2.978v-.496A2.98 2.98 0 0 0 6.31.326a2.98 2.98 0 0 0-2.977 2.977v.496A2.98 2.98 0 0 0 6.31 6.777Zm3.633 1.479a13.854 13.854 0 0 0-7.267 0A2.493 2.493 0 0 0 .85 10.65v1.586h10.917V10.65c0-1.112-.75-2.096-1.825-2.394Z"/></svg>
